X: 108
T:Wherligig, The
T:to the tune Woodicock
M:6/8
L:1/8
B:The Round Band Book of Playford
K:Dm
A | "Dm"d2d f>ed | "Am"c2A c2c | "Dm"d2d f>ed | "Am"cAA A2A |
"Dm"d2d f>ed | "Am"c2A c2c | "Dm"d2d f>ed | "Am"cAA A2 ||
!segno!|:d | "F"c2B c>BA | "Gm"BGG G2G | "Am"AAA A>Bc | "Dm"dDD D2d |
"F"c2B c>BA | "Gm"BGG G2G | "Am" AAA A>Bc | "Dm"dDD D2 :|
A | "Dm"d2d f>ed | "Am"c2A c2c | "Dm"d2d f>ed | "Am"cAA A2A |
"Dm"d2d f>ed | "Am"c2A c2c | "Dm"d2d f>ed | "Am"cAA A2 |]
%%text repeat from sign three times

